X: 60
T: Goodbye girls I’m going to Boston
B: canberra pickers and fiddlers
B: old time tunes update
B: tunes
L:1/4
Q: 1/4=100
K:G
V:1 
d/2|"G"G/2B/2 d3/4d/4|"C"e/2e/2 c/2A/2|"D7"A/2B/2 c/2B/4c/4|"G"d/2d/2 B/2G/2|\
"G"G/2B/2 d3/4d/4|"C"e/2e/2 c/2A/2|"D7"d/2d/2 c/4B/4A/2|"G"G G/2:|
|:d/2|"G"g/2g/4g/4 g/2a/2|g d/2e/2|"F"=f/2f/4f/4 f/2g/2|=f d|"G"g/2g/4g/4 g/2a/2\
|g d/2e/2|"F"=f/2d/2 c/2A/2|"G"G3/2:|
% abcbook-tune_id 67a7d9ece9c4067e97f7406f
% abcbook-tune_composer_id 
% abcbook-link-0 https://www.youtube.com/watch?v=ahJT2aepzOE
% abcbook-link-title-0 The Goodbye Girls - &quot;Goodbye Girls, I&#39;m Going to Boston&quot;
% abcbook-boost 0
% abcbook-difficulty 0
% abcbook-tags old time tunes
% abcbook-tablature 
% abcbook-transpose 2
% abcbook-tuning AEAE
% abcbook-lastupdated 1739094494646
% abcbook-src-url 
% abcbook-soundfonts 
% abcbook-repeats 1
%%MIDI transpose 2


